X:1
T:Never Lose the Golden Rule
T:Never Lose the Golden Rule
T:John Adcock
T:Frances Jane (Fanny) Crosby, 1870
T:Public Domain Courtesy of the Cyber Hymnal™
C:John Adcock
Z:Public Domain
Z:Courtesy of the Cyber Hymnal™
%%score ( 1 2 ) 3
L:1/8
Q:1/4=83
M:2/4
K:Bb
V:1 treble 
V:2 treble 
V:3 bass 
V:1
 [Dd]>[Dc] [Dc][DB] | [EA][EG] [DF]2 | [CF] (G/A/) [FB][Fd] | [Fc]4 | [Dd]>[Dc] [Dc][DB] | %5
w: 1.~Ne- ver lose the|gold- en rule,|Keep it * still in|view;|Do to o- thers|
w: 2.~Help the fee- ble|ones a- long,|Cheer the * faint and|weak;|To the sor- row-|
w: 3.~Love the Lord, the|first com- mand,|With thy * soul and|mind;|Love thy neigh- bor|
 [EA][EG] [DF]2 | [EF]>[EG] [EB][Ec] | [DB]4 | [FA]2 [Fd]2 | [=Ec]2 F2 | [C=E]F [EG][FA] | %11
w: as you would|They should do to|you.|Kind- ly,|gent- ly,|In their bur- den|
w: la- den heart|Words of com- fort|speak.|Free- ly,|free- ly,|From the boun- ty|
w: as thy- self,|Both in one com-|bined.|Just- ly,|just- ly,|With each o- ther|
 [GB][FA] [=EG]2 | [FA]2 [Fd]2 | [=Ec]2 F2 | [DB] (A/G/) F[C=E] | [CF]4 || %16
w: bear a part,|Meek- ly|chid- ing|With a * lov- ing|heart.|
w: of your store,|Cheer- ful|giv- ers,|Help the * hum- bler|poor.|
w: strive to live,|Ev- er|rea- dy,|Will- ing * to for-|give.|
"^Refrain" [Dd]>[Dc] [Dc][DB] | [EA][EG] [DF]2 | [CF] (G/A/) [FB][Fd] | [Fc]4 | %20
w: ||||
w: Ne- ver lose the|gold- en rule,|Keep it * still in|view;|
w: ||||
 [Dd]>[Dc] [Dc][DB] | [EA][EG] [DF]2 | [EF]>[EG] [EA][Ec] | [DB]4 |] %24
w: ||||
w: Do to o- thers|as you would|They should do to|you.|
w: ||||
V:2
 x4 | x4 | x F x2 | x4 | x4 | x4 | x4 | x4 | x4 | x2 F2 | x F x2 | x4 | x4 | x2 F2 | x D F x | %15
 x4 || x4 | x4 | x F x2 | x4 | x4 | x4 | x4 | x4 |] %24
V:3
 [B,,F,]>[B,,F,] [B,,F,][B,,F,] | [B,,G,][B,,A,] [B,,B,]2 | [F,A,][E,C] [D,B,][B,,B,] | [F,A,]4 | %4
 [B,,F,]>[B,,F,] [B,,F,][B,,^F,] | [B,,G,][B,,A,] [B,,B,]2 | [F,A,]>[F,B,] [F,C][F,A,] | [B,,B,]4 | %8
 [F,C]2 [B,,B,]2 | [C,G,]2 [F,A,]2 | [B,C][A,C] [G,C][F,C] | [=E,C][F,C] [C,B,]2 | %12
 [F,C]2 [B,,B,]2 | [C,G,]2 [D,F,]2 | [G,,G,] ([A,,^F,]/[B,,G,]/) [C,A,][C,B,] | [F,A,]4 || %16
 [B,,F,]>[B,,F,] [B,,F,][B,,F,] | [B,,G,][B,,A,] [B,,B,]2 | [F,A,][E,C] [D,B,][B,,B,] | [F,A,]4 | %20
 [B,,F,]>[B,,F,] [B,,F,][B,,^G,] | [B,,G,][B,,A,] [B,,B,]2 | [F,A,]>[F,B,] [F,C][F,A,] | %23
 [B,,B,]4 |] %24

